X: 12508
T: Farewell To Gurteen
R: jig
M: 6/8
K: Dmajor
|:F2 D FGA|dfd ecA|F2 D FAF|GEF GFE|
F2 D FGA|dfd ecA|fef gec|Adc d2 A:|
|:d2 f fef|dfd ecA|dAF D2 f|ece gfe|
dAd fef|dcA AFA|Ace gec|Adc d3:|

